!!!OTL: 190. Das Bluemlein auf der Heide.
!!!COM: Volksweise
!!!ARE: Europa, Mitteleuropa, Deutschland
!!!SCT: B0190
!!!TXL: @@DE
!!!YEM: Copyright 1995, estate of Helmut Schaffrath.
**kern	**text
*ICvox	*
*Ivox	*
*clefG2	*
*M3/4	*
*k[b-]	*
*F:	*
!LO:TX:a:t=Leicht und anmuthig.	!
{8a	So
=1	=1
4.a	viel
8g	der
8a	Mai
8b-/	auch
=2	=2
8.dd	Blüm-
16cc	-lein
4.cc}	beut
{8a	ʒu
=3	=3
4.g	Troſt
8a	und
8b-	Au-
8cc	-gen-
=4	=4
(4b-/	-weide,
4a)	.
8r}	.
{8a	ich
=5	=5
8.a	weiß
16b-/	nur
4.a	eins,
8a	das
=6	=6
8.a	mich
16b-/	erfreut,
4.a}	.
{8a	ich
=7	=7
8.dd	weiß
16bn	nur
4.g	eins,
8g	das
=8	=8
8.g	mich
16cc	er-
4.cc;}	-freut
{8b-X	das
=9	=9
4.a	Blümlein
8g	.
8a	auf
8b-	der
=10	=10
8.ddL	Hei-
16ccJ	.
4cc}	-de,
{8aL	auf
8fJ	.
=11	=11
(2g	der
8aL	Hei-
8b-J)	.
=12	=12
2a}	-de,
{4c	das
=13	=13
4.a	Blüm-
8g	-lein
8a	auf
8b-	der
=14	=14
8.ccL	Hei-
16ddJ	.
4cc}	-de,
{8a	auf
8f	der
=15	=15
(<2cc	Hei-
8b-L	.
8gJ)	.
=16	=16
2f	-de.
8r}	.
==	==
!!!AGN: Natur - Lied, Fruehling
!!!ONB: ESAC (Essen Associative Code) Database: BOEHME
!!!AMT: simple triple
!!!AIN: vox
!!!EED: Helmut Schaffrath
!!!EEV: 1.0
!!!RDF**kern: < = below
!!!GTL: Naturfreude, Waldlust, Landleben, Berg- und Wasserfahrt
!!@@COMMENT:"Text von Hoffmann von Fallersleben. Mel. als Volksweiſe beʒeichnet in mehreren
!!Sammlungen gefunden; von Ludw. Andre für Männergeſang geſetʒt."
!!@@END:
!!!Text: H. von Fallersleben
!!!URL-scan: https://archive.org/details/BoehmeVtLieder1895/page/n183/mode/2up
!!!ENC: Anna Maria Matuszewska
!!!EEV: 2024/21/06
*-	*-
